dist/assets/images/advantages-1.svg

<?xml version="1.0" encoding="UTF-8"?>
<svg width="36px" height="36px" viewBox="0 0 36 36" version="1.1" xmlns="http://www.w3.org/2000/svg" xmlns:xlink="http://www.w3.org/1999/xlink">
    <!-- Generator: Sketch 41.2 (35397) - http://www.bohemiancoding.com/sketch -->
    <title>Page 1</title>
    <desc>Created with Sketch.</desc>
    <defs></defs>
    <g id="LP:-Верстка" stroke="none" stroke-width="1" fill="none" fill-rule="evenodd">
        <g id="Главная-страница-[960]" transform="translate(-182.000000, -1030.000000)" fill="#000">
            <g id="Group-20-Copy-2" transform="translate(130.000000, 980.000000)">
                <g id="Page-1" transform="translate(52.000000, 50.000000)">
                    <path d="M18.0002182,1.09090909 C8.67621818,1.09090909 1.09112727,8.676 1.09112727,18 C1.09112727,27.324 8.67621818,34.9090909 18.0002182,34.9090909 C27.3242182,34.9090909 34.9093091,27.324 34.9093091,18 C34.9093091,8.676 27.3242182,1.09090909 18.0002182,1.09090909 M18.0002182,36 C8.07403636,36 0.000218181818,27.9250909 0.000218181818,18 C0.000218181818,8.07490909 8.07403636,0 18.0002182,0 C27.9253091,0 36.0002182,8.07490909 36.0002182,18 C36.0002182,27.9250909 27.9253091,36 18.0002182,36" id="Fill-1"></path>
                    <path d="M18.0002182,4.36363636 C10.4805818,4.36363636 4.36385455,10.4803636 4.36385455,18 C4.36385455,25.5196364 10.4805818,31.6363636 18.0002182,31.6363636 C25.5198545,31.6363636 31.6365818,25.5196364 31.6365818,18 C31.6365818,10.4803636 25.5198545,4.36363636 18.0002182,4.36363636 M18.0002182,32.7272727 C9.87949091,32.7272727 3.27294545,26.1207273 3.27294545,18 C3.27294545,9.87927273 9.87949091,3.27272727 18.0002182,3.27272727 C26.1198545,3.27272727 32.7274909,9.87927273 32.7274909,18 C32.7274909,26.1207273 26.1198545,32.7272727 18.0002182,32.7272727" id="Fill-4"></path>
                    <path d="M17.9992364,16.6060364 C17.6479636,16.6060364 17.3119636,16.7380364 17.0545091,16.9758545 C16.7796,17.2289455 16.6225091,17.5725818 16.6072364,17.9456727 C16.5919636,18.3165818 16.7239636,18.6733091 16.9759636,18.9460364 C17.2432364,19.2351273 17.6065091,19.3933091 18.0003273,19.3933091 C18.3516,19.3933091 18.6876,19.2624 18.9461455,19.0234909 C19.5101455,18.5020364 19.5450545,17.6184 19.0236,17.0544 C18.7563273,16.7653091 18.3930545,16.6060364 17.9992364,16.6060364 M18.0003273,20.4842182 C17.3097818,20.4842182 16.6432364,20.1940364 16.1752364,19.6867636 C15.7246909,19.1991273 15.4901455,18.5653091 15.5174182,17.9020364 C15.5436,17.2387636 15.8261455,16.6256727 16.3137818,16.1751273 C17.2825091,15.2805818 18.9319636,15.3460364 19.8243273,16.3136727 C20.7548727,17.3205818 20.6926909,18.8958545 19.6868727,19.8253091 C19.2254182,20.2507636 18.6265091,20.4842182 18.0003273,20.4842182" id="Fill-6"></path>
                    <polygon id="Fill-8" points="20.6018182 21.6195273 18.5454545 19.3940727 19.3472727 18.6533455 21.4025455 20.8788"></polygon>
                    <polygon id="Fill-10" points="15.1206545 21.4032 14.3799273 20.6024727 16.6053818 18.5450182 17.3472 19.3468364"></polygon>
                    <polygon id="Fill-12" points="16.6350545 17.3453455 9.47323636 9.22461818 10.2903273 8.50352727 17.4532364 16.6242545"></polygon>
                    <polygon id="Fill-14" points="19.3937455 17.4545455 18.6530182 16.6538182 24.4392 11.3061818 25.1799273 12.1069091"></polygon>
                    <polygon id="Fill-16" points="17.4545455 31.1509091 18.5454545 31.1509091 18.5454545 29.0901818 17.4545455 29.0901818"></polygon>
                    <polygon id="Fill-18" points="17.4545455 6.90872727 18.5454545 6.90872727 18.5454545 4.848 17.4545455 4.848"></polygon>
                    <polygon id="Fill-19" points="4.848 18.5454545 6.90872727 18.5454545 6.90872727 17.4545455 4.848 17.4545455"></polygon>
                    <polygon id="Fill-20" points="29.0901818 18.5454545 31.1509091 18.5454545 31.1509091 17.4545455 29.0901818 17.4545455"></polygon>
                </g>
            </g>
        </g>
    </g>
</svg>

<svg width="36" height="36" viewBox="0 0 36 36" xmlns="http://www.w3.org/2000/svg"><title>Page 1</title><g fill-rule="evenodd"><path d="M18 1.09C8.676 1.09 1.091 8.677 1.091 18s7.585 16.91 16.91 16.91c9.323 0 16.908-7.586 16.908-16.91S27.324 1.09 18 1.09M18 36C8.074 36 0 27.925 0 18S8.074 0 18 0c9.925 0 18 8.075 18 18s-8.075 18-18 18"/><path d="M18 4.364C10.48 4.364 4.364 10.48 4.364 18S10.48 31.636 18 31.636 31.637 25.52 31.637 18 25.52 4.364 18 4.364m0 28.363C9.88 32.727 3.273 26.121 3.273 18 3.273 9.88 9.879 3.273 18 3.273c8.12 0 14.727 6.606 14.727 14.727 0 8.12-6.607 14.727-14.727 14.727"/><path d="M18 16.606a1.39 1.39 0 0 0-1.393 1.34c-.015.37.117.727.369 1 .267.29.63.447 1.024.447a1.395 1.395 0 0 0 0-2.787m0 3.878a2.49 2.49 0 0 1-1.825-.797 2.464 2.464 0 0 1-.658-1.785 2.468 2.468 0 0 1 .797-1.727c.969-.894 2.618-.829 3.51.139a2.488 2.488 0 0 1-.137 3.511 2.481 2.481 0 0 1-1.687.66"/><path d="M20.602 21.62l-2.057-2.226.802-.74 2.056 2.225zm-5.482-.217l-.74-.8 2.225-2.058.742.802zm1.515-4.058l-7.162-8.12.817-.721 7.163 8.12zm2.759.11l-.741-.801 5.786-5.348.74.8zM17.455 31.15h1.09v-2.06h-1.09zm0-24.241h1.09V4.848h-1.09zM4.848 18.545h2.06v-1.09h-2.06zm24.242 0h2.06v-1.09h-2.06z"/></g></svg>
